X:861
T:Dancing Dustman, The
C:Joe Buchanan's Scottish Tome - Page 420.0
I:420 0
C:Felix Burns
R:Two-step
Z:Carl Allison
L:1/8
M:4/4
K:Gmaj
P:A
"G"bgd B2 ^c | edB G2 B | "Am"A^GA c2 A | E6 |
"D7"FAc f2 e| d2 c "D7"A2 F | "A"B^AB "G"e2 B | G6 |
"G"bgd B2 ^c | edB G2 B | "Am"A^GA c2 A | E6 |
"D7"FAc f2 e| d2 c "D7"A2 F | E=F^F B2 A | "G"G3 [Bdg]3 :|[K:Cmaj]
P:B
"C"[ceg] c cde | d2 c g3 | "Dm"[dfa]2 d def | e2 "Dm"d a3 |
"G7"[fa]2 f fga | "G7"[fb]2 [fb] [fb]3 | "C"[cea]2 c cde | [ea]2 [ea] [ea]3 |
[ceg]2 c cde | d2 c g3 | "Dm"[dfa]2 d def | "Dm"e2 d a3 |
"G7"[Bfb]2 f fga | [fb]2 [fb] [fb]3 | bag fed | c3 [cegc']3 :|[K:Cmaj]
%%newpage
